**kern	**kern
*staff2	*staff1
*clefG2	*clefG2
*k[f#c#]	*k[f#c#]
*D:	*D
*clefF4	*clefG2
*M2/4	*M2/4
=225:|!|:	=225:|!|:
4GG 4G	4a 4cc# 4ee
4FF# 4F#	4a 4dd 4ff#
=226	=226
4CC# 4C#	4a 4ee 4gg
4r	8r
.	16r
.	16ee
*clefG2	*
=227	=227
8dL 8f#	16ff#LL
.	16cc#
8dJ 8f#	16dd
.	16ff#JJ
8eL 8g	16ggLL
.	16dd#
8eJ 8g	16ee
.	16ggJJ
=228	=228
4f# 4a	8.aa
.	16r
4r	8r
.	(16dddLL
.	16ccc#JJ)
=229	=229
2r	(16ccc#LL
.	16bb)
.	(16bb
.	16aaJJ)
.	(16aaLL
.	16gg)
.	(16gg
.	16ff#JJ)
=230	=230
4.g 4.cc#	(4.bb
8f# 8dd	8aa)
=231	=231
8eL 8dd	8gg#L
8aJ 8cc#	8ggJ
8bL 8dd	8ff#L
8g#J 8dd	8ffJ
=232	=232
4a 4cc#	(8eeL
.	8ff#J
4r	8ggL
.	8gg#J
=	=
*-	*-
